48x48/apps/manjaro-welcome.svg

<svg height="48" width="48" xmlns="http://www.w3.org/2000/svg"><path d="m6 5c-1.108 0-2 .892-2 2v36c0 1.108.892 2 2 2h10v-28h14v-12zm26 0v40h10c1.108 0 2-.892 2-2v-36c0-1.108-.892-2-2-2zm-14 14v26h12v-26z" opacity=".2"/><path d="m6 4c-1.108 0-2 .892-2 2v36c0 1.108.892 2 2 2h10v-28h14v-12zm26 0v40h10c1.108 0 2-.892 2-2v-36c0-1.108-.892-2-2-2zm-14 14v26h12v-26z" fill="#16a085"/><path d="m6 4c-1.108 0-2 .892-2 2v1c0-1.108.892-2 2-2h24v-1zm26 0v1h10c1.108 0 2 .892 2 2v-1c0-1.108-.892-2-2-2zm-14 14v1h12v-1z" fill="#f4f4f7" opacity=".2"/></svg>

<svg height="48" width="48" xmlns="http://www.w3.org/2000/svg">
    <path d="M6 5c-1.108 0-2 .892-2 2v36c0 1.108.892 2 2 2h10V17h14V5zm26 0v40h10c1.108 0 2-.892 2-2V7c0-1.108-.892-2-2-2zM18 19v26h12V19z" opacity=".2"/>
    <path d="M6 4c-1.108 0-2 .892-2 2v36c0 1.108.892 2 2 2h10V16h14V4zm26 0v40h10c1.108 0 2-.892 2-2V6c0-1.108-.892-2-2-2zM18 18v26h12V18z" fill="#16a085"/>
    <path d="M6 4c-1.108 0-2 .892-2 2v1c0-1.108.892-2 2-2h24V4zm26 0v1h10c1.108 0 2 .892 2 2V6c0-1.108-.892-2-2-2zM18 18v1h12v-1z" fill="#f4f4f7" opacity=".2"/>
</svg>
